X:1
T:Over the hills and far away
Q:1/4=115
M:4/4
L:1/8
K:Ab
V:1
z6|zE|AB cB AB cB|
A2 F2 F3E|AB cB AB cA|d2 B2 B2 zE|AB cB AB cB|
A2 F2 d4|F2 ED E2 c2|d2 B2 B4|e2 dd c2 B2|
A2 F2 F3F|e2 d2 c2 B2|d2 B2 B3E|AB cB AB cB|
A2 F2 d4|F2 ED E2 c2|d2 B2 B3E|AB cB AB cB|
A2 F2 F3E|AB cB AB cA|d2 B2 B2 zE|AB cB AB cB|
A2 F2 d4|F2 ED E2 c2|d2 B2 B4|e2 dd c2 B2|
A2 F2 F3F|e2 d2 c2 B2|d2 B2 B3E|AB cB AB cB|
A2 F2 d4|F2 ED E2 c2|d2 B2 B3E|AB cB AB cB|
A2 F2 F3E|AB cB AB cA|d2 B2 B2 zE|AB cB AB cB|
A2 F2 d4|F2 ED E2 c2|d2 B2 B4|e2 dd c2 B2|
A2 F2 F3F|e2 d2 c2 B2|d2 B2 B3E|AB cB AB cB|
A2 F2 d4|F2 ED E2 c2|d2 B2 B3E|d2 B2 B3
